img/svg/icon7.svg

<svg xmlns="http://www.w3.org/2000/svg" preserveAspectRatio="xMidYMid" width="42" height="48" viewBox="0 0 42 48"><defs><style>.cls-2 { fill: #000000; stroke: #ff4700; stroke-linejoin: round; stroke-width: 1px; fill-opacity: 0; }</style></defs><path d="M39.99 31.938l-2.313.003c-.409.001-.8.169-1.084.466-.696.731-1.628 1.135-2.624 1.137-2.016.002-3.66-1.658-3.663-3.702 0-2.044 1.637-3.706 3.65-3.71.997-.002 1.93.398 2.629 1.125.285.296.675.463 1.083.462l2.312-.002c.401-.001.785-.163 1.067-.45.282-.287.441-.675.441-1.08v-.002l-.019-12.236c0-.406-.16-.795-.443-1.081-.284-.286-.668-.447-1.068-.446l-13.249.021h-2.786l-.002-1.443v-.005c0-.581.233-1.138.646-1.544 1.005-.987 1.558-2.306 1.558-3.714v-.03c-.004-2.865-2.3-5.194-5.125-5.207-2.825.013-5.121 2.342-5.125 5.207v.03c0 1.408.553 2.727 1.558 3.714.413.406.646.963.646 1.544v.005l-.002 1.443h-2.786l-13.249-.021c-.4-.001-.784.16-1.068.446-.283.286-.443.675-.443 1.081l-.019 12.236v.002c0 .405.159.793.441 1.08.282.287.666.449 1.067.45l2.312.002c.408.002.799-.166 1.083-.462.698-.727 1.632-1.127 2.629-1.125 2.013.004 3.65 1.666 3.65 3.71-.003 2.044-1.647 3.703-3.663 3.702-.996-.002-1.928-.406-2.624-1.137-.284-.297-.675-.465-1.084-.466l-2.313-.003c-.833-.001-1.509.682-1.51 1.526l.015 12.494v.003c0 .843.674 1.527 1.507 1.528l15.388.011c.401.001.785-.16 1.069-.446.283-.286.443-.675.443-1.08l.003-1.297v-.003c0-.413-.166-.809-.459-1.097-.714-.701-1.107-1.639-1.107-2.639v-.021c.003-2.035 1.634-3.69 3.641-3.699 2.007.009 3.638 1.664 3.641 3.699v.021c0 1-.393 1.938-1.107 2.639-.293.288-.459.684-.459 1.097v.003l.002 1.297c.001.405.16.794.444 1.08.283.286.667.446 1.068.446l15.389-.011c.832-.001 1.506-.685 1.506-1.528v-.003l.016-12.494c-.001-.844-.677-1.527-1.51-1.526z" id="path-1" class="cls-2" fill-rule="evenodd"/></svg>

<svg xmlns="http://www.w3.org/2000/svg" xmlns:xlink="http://www.w3.org/1999/xlink" preserveAspectRatio="xMidYMid" width="42" height="48" viewBox="0 0 42 48">
  <defs>
    <style>

      .cls-2 {
        fill: #000000;
        stroke: #ff4700;
        stroke-linejoin: round;
        stroke-width: 1px;
        fill-opacity: 0;
      }
    </style>
  </defs>
  <path d="M39.990,31.938 C39.990,31.938 37.677,31.941 37.677,31.941 C37.268,31.942 36.877,32.110 36.593,32.407 C35.897,33.138 34.965,33.542 33.969,33.544 C31.953,33.546 30.309,31.886 30.306,29.842 C30.306,27.798 31.943,26.136 33.956,26.132 C34.953,26.130 35.886,26.530 36.585,27.257 C36.870,27.553 37.260,27.720 37.668,27.719 C37.668,27.719 39.980,27.717 39.980,27.717 C40.381,27.716 40.765,27.554 41.047,27.267 C41.329,26.980 41.488,26.592 41.488,26.187 C41.488,26.187 41.488,26.187 41.488,26.185 C41.488,26.185 41.469,13.949 41.469,13.949 C41.469,13.543 41.309,13.154 41.026,12.868 C40.742,12.582 40.358,12.421 39.958,12.422 C39.958,12.422 26.709,12.443 26.709,12.443 C26.709,12.443 23.923,12.443 23.923,12.443 C23.923,12.443 23.921,11.000 23.921,11.000 C23.921,11.000 23.921,10.995 23.921,10.995 C23.921,10.414 24.154,9.857 24.567,9.451 C25.572,8.464 26.125,7.145 26.125,5.737 C26.125,5.737 26.125,5.707 26.125,5.707 C26.121,2.842 23.825,0.513 21.000,0.500 C18.175,0.513 15.879,2.842 15.875,5.707 C15.875,5.707 15.875,5.737 15.875,5.737 C15.875,7.145 16.428,8.464 17.433,9.451 C17.846,9.857 18.079,10.414 18.079,10.995 C18.079,10.995 18.079,11.000 18.079,11.000 C18.079,11.000 18.077,12.443 18.077,12.443 C18.077,12.443 15.291,12.443 15.291,12.443 C15.291,12.443 2.042,12.422 2.042,12.422 C1.642,12.421 1.258,12.582 0.974,12.868 C0.691,13.154 0.531,13.543 0.531,13.949 C0.531,13.949 0.512,26.185 0.512,26.185 C0.512,26.187 0.512,26.187 0.512,26.187 C0.512,26.592 0.671,26.980 0.953,27.267 C1.235,27.554 1.619,27.716 2.020,27.717 C2.020,27.717 4.332,27.719 4.332,27.719 C4.740,27.721 5.131,27.553 5.415,27.257 C6.113,26.530 7.047,26.130 8.044,26.132 C10.057,26.136 11.694,27.798 11.694,29.842 C11.691,31.886 10.047,33.545 8.031,33.544 C7.035,33.542 6.103,33.138 5.407,32.407 C5.123,32.110 4.732,31.942 4.323,31.941 C4.323,31.941 2.010,31.938 2.010,31.938 C1.177,31.937 0.501,32.620 0.500,33.464 C0.500,33.464 0.515,45.958 0.515,45.958 C0.515,45.959 0.515,45.960 0.515,45.961 C0.515,46.804 1.189,47.488 2.022,47.489 C2.022,47.489 17.410,47.500 17.410,47.500 C17.811,47.501 18.195,47.340 18.479,47.054 C18.762,46.768 18.922,46.379 18.922,45.974 C18.922,45.974 18.925,44.677 18.925,44.677 C18.925,44.676 18.925,44.676 18.925,44.674 C18.925,44.261 18.759,43.865 18.466,43.577 C17.752,42.876 17.359,41.938 17.359,40.938 C17.359,40.938 17.359,40.917 17.359,40.917 C17.362,38.882 18.993,37.227 21.000,37.218 C23.007,37.227 24.638,38.882 24.641,40.917 C24.641,40.917 24.641,40.938 24.641,40.938 C24.641,41.938 24.248,42.876 23.534,43.577 C23.241,43.865 23.075,44.261 23.075,44.674 C23.075,44.676 23.075,44.676 23.075,44.677 C23.075,44.677 23.077,45.974 23.077,45.974 C23.078,46.379 23.237,46.768 23.521,47.054 C23.804,47.340 24.188,47.500 24.589,47.500 C24.589,47.500 39.978,47.489 39.978,47.489 C40.810,47.488 41.484,46.804 41.484,45.961 C41.484,45.960 41.484,45.959 41.484,45.958 C41.484,45.958 41.500,33.464 41.500,33.464 C41.499,32.620 40.823,31.937 39.990,31.938 Z" id="path-1" class="cls-2" fill-rule="evenodd"/>
</svg>
